packages/product-components/src/images/networks/doge.svg

<svg width="32" height="32" viewBox="0 0 32 32" fill="none" xmlns="http://www.w3.org/2000/svg">
<style>
@media (prefers-color-scheme: dark) {
    .background {
        fill: #F6F6F6;
    }
    .foreground {
        fill: #1F1F1F;
    }
}
</style>
<path class="background" d="M0 8C0 3.58172 3.58172 0 8 0H24C28.4183 0 32 3.58172 32 8V24C32 28.4183 28.4183 32 24 32H8C3.58172 32 0 28.4183 0 24V8Z" fill="#1F1F1F"/>
<path class="foreground" fill-rule="evenodd" clip-rule="evenodd" d="M15.82 25.9868H9.09711V17.0844H6.72729V14.9037H9.09692V6.00074H14.8668C14.8979 6.00074 14.9329 6.0006 14.9718 6.00043L14.9723 6.00043C16.6407 5.99344 25.2727 5.95725 25.2727 16.1608C25.2727 26.7759 15.82 25.9868 15.82 25.9868ZM12.8837 9.69493H15.536C16.5281 9.69493 21.519 10.0927 21.527 16.2327C21.5349 22.2997 16.5029 22.2934 15.6934 22.2924C15.6836 22.2924 15.6745 22.2924 15.666 22.2924H12.8837V17.0842H17.0566V14.9035H12.8837V9.69493Z" fill="#F6F6F6"/>
</svg>

<svg xmlns="http://www.w3.org/2000/svg" width="32" height="32" viewBox="0 0 32 32" fill="none">
    <path class="bg" fill="#1F1F1F" d="M0 8a8 8 0 0 1 8-8h16a8 8 0 0 1 8 8v16a8 8 0 0 1-8 8H8a8 8 0 0 1-8-8z"/>
    <path class="fg" fill="#F6F6F6" fill-rule="evenodd" d="M15.82 25.987H9.097v-8.903h-2.37v-2.18h2.37V6h5.875c1.669-.008 10.3-.044 10.3 10.16 0 10.615-9.452 9.826-9.452 9.826M12.884 9.695h2.652c.992 0 5.983.398 5.991 6.538.008 6.067-5.024 6.06-5.834 6.06h-2.809v-5.209h4.173v-2.18h-4.173z" clip-rule="evenodd"/>
</svg>
